Adwaita++/actions/22/color-fill.svg

<svg height="22" viewBox="0 0 22 22" width="22" xmlns="http://www.w3.org/2000/svg">
  <path d="m1 2 2 4v8c.00005.52358.47642.99995 1 1h9c.52358-.00005.99995-.47642 1-1v-3a2 3 0 0 0 2-3 2 3 0 0 0 -2-3v-3z" fill="#444" transform="translate(3 3)"/>
</svg>

<svg xmlns="http://www.w3.org/2000/svg" width="22" height="22" viewBox="0 0 22 22">
 <defs>
  <style id="current-color-scheme" type="text/css">
   .ColorScheme-Text { color:#444444; } .ColorScheme-Highlight { color:#4285f4; }
  </style>
 </defs>
 <path style="fill:currentColor" class="ColorScheme-Text" d="M 1 2 L 3 6 L 3 14 C 3.00005 14.52358 3.47642 14.99995 4 15 L 13 15 C 13.52358 14.99995 13.99995 14.52358 14 14 L 14 11 A 2 3 0 0 0 16 8 A 2 3 0 0 0 14 5 L 14 2 L 1 2 z" transform="translate(3 3)"/>
</svg>
